contributed-vectors/oo.svg

<?xml version="1.0" encoding="UTF-8" standalone="no"?>
<!-- Created with Inkscape (http://www.inkscape.org/) -->

<svg
   width="192"
   height="192"
   viewBox="0 0 192 192.00002"
   version="1.1"
   id="svg5"
   inkscape:version="1.2 (dc2aedaf03, 2022-05-15)"
   xml:space="preserve"
   sodipodi:docname="oo.svg"
   inkscape:export-filename="oo.png"
   inkscape:export-xdpi="96"
   inkscape:export-ydpi="96"
   xmlns:inkscape="http://www.inkscape.org/namespaces/inkscape"
   xmlns:sodipodi="http://sodipodi.sourceforge.net/DTD/sodipodi-0.dtd"
   xmlns="http://www.w3.org/2000/svg"
   xmlns:svg="http://www.w3.org/2000/svg"><sodipodi:namedview
     id="namedview7"
     pagecolor="#505050"
     bordercolor="#eeeeee"
     borderopacity="1"
     inkscape:pageshadow="0"
     inkscape:pageopacity="0"
     inkscape:pagecheckerboard="0"
     inkscape:document-units="px"
     showgrid="false"
     units="px"
     inkscape:zoom="4"
     inkscape:cx="9.375"
     inkscape:cy="82"
     inkscape:window-width="1884"
     inkscape:window-height="1052"
     inkscape:window-x="36"
     inkscape:window-y="0"
     inkscape:window-maximized="1"
     inkscape:current-layer="layer2"
     inkscape:showpageshadow="0"
     inkscape:deskcolor="#505050" /><defs
     id="defs2"><style
       id="style3485">.a{fill:none;stroke:#b1b5bd;stroke-linecap:round;stroke-linejoin:round;isolation:isolate;opacity:0.63;}</style><style
       id="style3872">.a,.c,.d{fill:none;stroke:#000;}.a,.d{stroke-linecap:round;}.a{stroke-linejoin:round;}.b{fill:#000;}</style><style
       id="style1351">.a{fill:none;stroke:#b1b5bd;stroke-linecap:round;stroke-linejoin:round;isolation:isolate;opacity:0.63;}</style><style
       id="style1493">.a{fill:none;stroke:#fff;stroke-linecap:round;stroke-linejoin:round;}</style><style
       id="style644">.a{fill:none;stroke:#fff;stroke-linecap:round;stroke-linejoin:round;}</style><style
       id="style429">.a{fill:none;stroke:#fff;stroke-linecap:round;stroke-linejoin:round;}</style></defs><g
     inkscape:groupmode="layer"
     id="layer2"
     inkscape:label="icon"><circle
       class="a"
       cx="95.999992"
       cy="96"
       r="87.5"
       id="circle435"
       style="stroke-width:4;stroke-dasharray:none;opacity:1;fill:#71a372;stroke:none" /><circle
       class="a"
       cx="102.10464"
       cy="85.011612"
       r="11.802326"
       id="circle433"
       style="stroke-width:4;stroke-dasharray:none;opacity:1;fill:#ffffff;stroke:none" /><path
       id="path439"
       style="color:#000000;isolation:isolate;fill:#ffffff;stroke-linecap:round;stroke-linejoin:round;opacity:1;stroke:none"
       d="M 82.888672 9.5332031 A 87.5 87.5 0 0 0 75.910156 11.052734 C 68.198725 33.97567 70.5271 58.866043 81.78125 79.804688 C 67.803017 70.718126 51.310734 65.666515 34.140625 65.722656 A 3.0003 3.0003 0 0 0 34.005859 65.796875 C 26.947961 65.850132 19.931073 66.760512 13.107422 68.5 A 87.5 87.5 0 0 0 11.193359 75.263672 C 18.651302 73.011401 26.397257 71.833733 34.197266 71.789062 A 3.0003 3.0003 0 0 0 34.355469 71.734375 C 61.537704 71.71149 86.914982 85.320505 101.91406 108 C 116.51406 130.07603 119.3296 157.82923 109.63867 182.35156 A 87.5 87.5 0 0 0 116.60742 180.83594 C 124.4738 157.92009 122.38971 132.77044 110.92773 111.4707 C 130.90619 124.44703 155.57371 128.81523 179.08594 122.98242 A 87.5 87.5 0 0 0 180.91992 116.2168 C 151.55784 124.8283 119.73179 116.17466 98.833984 93.550781 C 77.840222 70.823014 71.770498 38.21603 82.888672 9.5332031 z " /></g></svg>

<svg xmlns="http://www.w3.org/2000/svg" xml:space="preserve" id="svg5" width="192" height="192" version="1.1"><defs id="defs2"><style id="style3485">.a{isolation:isolate;opacity:.63;fill:none;stroke:#fff;stroke-linecap:round;stroke-linejoin:round}</style></defs><g id="layer2"><circle id="circle435" cx="96" cy="96" r="87.5" class="a" style="stroke-width:4;stroke-dasharray:none;opacity:1;fill:#71a372;stroke:none"/><circle id="circle433" cx="102.105" cy="85.012" r="11.802" class="a" style="stroke-width:4;stroke-dasharray:none;opacity:1;fill:#fff;stroke:none"/><path id="path439" d="M82.889 9.533a87.5 87.5 0 0 0-6.979 1.52c-7.711 22.923-5.383 47.813 5.871 68.752-13.978-9.087-30.47-14.138-47.64-14.082a3 3 0 0 0-.135.074A87.268 87.268 0 0 0 13.107 68.5a87.5 87.5 0 0 0-1.914 6.764 81.181 81.181 0 0 1 23.004-3.475 3 3 0 0 0 .158-.055A80.895 80.895 0 0 1 101.915 108c14.6 22.076 17.415 49.83 7.724 74.352a87.5 87.5 0 0 0 6.968-1.516 86.882 86.882 0 0 0-5.68-69.365c19.98 12.976 44.647 17.344 68.159 11.511a87.5 87.5 0 0 0 1.834-6.765c-29.362 8.611-61.188-.042-82.086-22.666C77.84 70.823 71.77 38.216 82.889 9.533z" style="color:#000;isolation:isolate;fill:#fff;stroke-linecap:round;stroke-linejoin:round;opacity:1;stroke:none"/></g></svg>
